website/assets/images/level-2.svg

<?xml version="1.0" encoding="UTF-8"?>
<svg width="28px" height="30px" viewBox="0 0 28 30" version="1.1" xmlns="http://www.w3.org/2000/svg" xmlns:xlink="http://www.w3.org/1999/xlink">
    <!-- Generator: Sketch 46.2 (44496) - http://www.bohemiancoding.com/sketch -->
    <title>Polygon</title>
    <desc>Created with Sketch.</desc>
    <defs>
        <linearGradient x1="73.1890545%" y1="84.6749442%" x2="16.1306099%" y2="15.1506696%" id="linearGradient-1">
            <stop stop-color="#BABABA" offset="0%"></stop>
            <stop stop-color="#848484" offset="100%"></stop>
        </linearGradient>
    </defs>
    <g id="Visual-1" stroke="none" stroke-width="1" fill="none" fill-rule="evenodd">
        <g id="3.-Icon" transform="translate(-741.000000, -953.000000)" fill-rule="nonzero" fill="url(#linearGradient-1)">
            <g id="Game-Rank" transform="translate(618.000000, 953.000000)">
                <g id="2" transform="translate(123.000000, 0.000000)">
                    <g id="Polygon">
                        <path d="M14,1 L1.87564435,8 L1.87564435,22 L14,29 L26.1243557,22 L26.1243557,8 L14,1 Z M14.5,0.133974596 L26.6243557,7.1339746 C26.9337567,7.31260739 27.1243557,7.64273441 27.1243557,8 L27.1243557,22 C27.1243557,22.3572656 26.9337567,22.6873926 26.6243557,22.8660254 L14.5,29.8660254 C14.1905989,30.0446582 13.8094011,30.0446582 13.5,29.8660254 L1.37564435,22.8660254 C1.06624327,22.6873926 0.875644347,22.3572656 0.875644347,22 L0.875644347,8 C0.875644347,7.64273441 1.06624327,7.31260739 1.37564435,7.1339746 L13.5,0.133974596 C13.8094011,-0.0446581987 14.1905989,-0.0446581987 14.5,0.133974596 Z M9.18746729,16.5364744 C8.93146915,16.432939 8.64000969,16.5565346 8.53647436,16.8125327 C8.43293904,17.0685309 8.55653457,17.3599903 8.81253271,17.4635256 L13.7576689,19.4635256 C13.8767029,19.5116675 14.0096952,19.5121707 14.1290901,19.4649311 L19.183954,17.4649311 C19.4407283,17.3633361 19.5665261,17.0728204 19.4649311,16.816046 C19.3633361,16.5592717 19.0728204,16.4334739 18.816046,16.5350689 L13.947174,18.4614797 L9.18746729,16.5364744 Z M13.947174,13.4614797 L9.18746729,11.5364744 C8.93146915,11.432939 8.64000969,11.5565346 8.53647436,11.8125327 C8.43293904,12.0685309 8.55653457,12.3599903 8.81253271,12.4635256 L13.7576689,14.4635256 C13.8767029,14.5116675 14.0096952,14.5121707 14.1290901,14.4649311 L19.183954,12.4649311 C19.4407283,12.3633361 19.5665261,12.0728204 19.4649311,11.816046 C19.3633361,11.5592717 19.0728204,11.4334739 18.816046,11.5350689 L13.947174,13.4614797 Z"></path>
                    </g>
                </g>
            </g>
        </g>
    </g>
</svg>

<svg width="28" height="30" viewBox="0 0 28 30" xmlns="http://www.w3.org/2000/svg"><title>Polygon</title><defs><linearGradient x1="73.189%" y1="84.675%" x2="16.131%" y2="15.151%" id="a"><stop stop-color="#BABABA" offset="0%"/><stop stop-color="#848484" offset="100%"/></linearGradient></defs><path d="M14 1L1.876 8v14L14 29l12.124-7V8L14 1zm.5-.866l12.124 7a1 1 0 0 1 .5.866v14a1 1 0 0 1-.5.866l-12.124 7a1 1 0 0 1-1 0l-12.124-7a1 1 0 0 1-.5-.866V8a1 1 0 0 1 .5-.866l12.124-7a1 1 0 0 1 1 0zM9.187 16.536a.5.5 0 1 0-.374.928l4.945 2a.5.5 0 0 0 .371 0l5.055-2a.5.5 0 0 0-.368-.929l-4.869 1.926-4.76-1.925zm4.76-3.075l-4.76-1.925a.5.5 0 1 0-.374.928l4.945 2a.5.5 0 0 0 .371 0l5.055-2a.5.5 0 0 0-.368-.929l-4.869 1.926z" fill-rule="nonzero" fill="url(#a)"/></svg>
